assets/images/script/m-3-mid.svg

<svg fill="none" height="238" viewBox="0 0 252 238" width="252" xmlns="http://www.w3.org/2000/svg"><path d="m15.1263 120.131c1.5844 14.259 47.2821-3.476 53.15-7.315 6.3895-4.179 14.8043-11.566 6.339-18.2038-11.3638-8.9102-25.7414-7.8322-39.0092-4.8761-9.3768 2.0891-28.63724 5.8361-32.34506 16.7419-3.992148 11.741 9.73536 22.597 18.69186 26.818 20.1933 9.518 44.2491 9.04 65.9905 8.127 37.9516-1.593 77.7706-5.185 114.9146-13.409 15.316-3.392 33.256-7.505 41.61-22.024 7.664-13.3209 3.87-24.1639-4.389-36.2461-22.523-32.9508-67.535-63.58799-106.056-65.76845-4.736-.26807-26.622-3.234372-29.257 3.08823-3.783 9.07962 3.589 26.42912 5.608 34.94572 15.279 64.4596 14.854 126.7436 17.391 192.7026" stroke="#000" stroke-linecap="round" stroke-width="5"/></svg>

<svg width="252" height="238" viewBox="0 0 252 238" fill="none" xmlns="http://www.w3.org/2000/svg">
<path d="M15.1263 120.131C16.7107 134.39 62.4084 116.655 68.2763 112.816C74.6658 108.637 83.0806 101.25 74.6153 94.6122C63.2515 85.702 48.8739 86.78 35.6061 89.7361C26.2293 91.8252 6.96886 95.5722 3.26104 106.478C-0.731108 118.219 12.9964 129.075 21.9529 133.296C42.1462 142.814 66.202 142.336 87.9434 141.423C125.895 139.83 165.714 136.238 202.858 128.014C218.174 124.622 236.114 120.509 244.468 105.99C252.132 92.6691 248.338 81.8261 240.079 69.7439C217.556 36.7931 172.544 6.15591 134.023 3.97545C129.287 3.70738 107.401 0.741078 104.766 7.06368C100.983 16.1433 108.355 33.4928 110.374 42.0094C125.653 106.469 125.228 168.753 127.765 234.712" stroke="black" stroke-width="5" stroke-linecap="round"/>
</svg>
